X:42
T:Jenni's Recipe
R:strathspey
C:Paul S. Cranford
O:Cape Breton Island
S:http://www.cranfordpub.com
D:currently unrecorded
B:Brenda Stubbert, The 2nd Collection
Z:psc
H:                                                        copyrights Cranford Publications, SOCAN
L:1/8
Q:300
M:C
K:D
B|Af e>cd>b|a>fe<d B/B/B B<d|A<d (3ddf e>gf<a|A>gf>e d2 (3ddB|
Af e>cd>b|a>fe<d B/B/B B<d|A>dB<d Agf<a|A>gf>e d2 d||
||f|g<ea>g f>ed>b|a>fe<d e2 d>e|f<dg>e f>edgf>e d2 d>f|
g<ea>g f>ed>B|A>FD<F E2 EF/E/|D>AF>d A<FG>B,|A,>GF<E D2 D|]
